lib/svgs/book.svg

<svg xmlns="http://www.w3.org/2000/svg" viewBox="0 0 20 20">
    <path fill="#000" fill-rule="evenodd" d="M15.2,2 L5.6,2 C4.72,2 4,2.72 4,3.6 L4,16.4 C4,17.28 4.72,18 5.6,18 L10.361,18 C10.785,18 11.192,17.832 11.492,17.532 L16.331,12.693 C16.631,12.393 16.8,11.986 16.8,11.562 L16.8,3.6 C16.8,2.72 16.08,2 15.2,2 L15.2,2 L15.2,2 Z M11.183,16.144 L11.183,12.85 C11.183,12.634 11.366,12.45 11.583,12.45 L14.877,12.45 L11.183,16.144 L11.183,16.144 L11.183,16.144 Z M5.2,16.4 L5.2,3.6 C5.2,3.384 5.383,3.2 5.6,3.2 L15.2,3.2 C15.417,3.2 15.6,3.384 15.6,3.6 L15.6,11.25 L11.583,11.25 C10.703,11.25 9.983,11.97 9.983,12.85 L9.983,16.8 L5.6,16.8 C5.383,16.8 5.2,16.617 5.2,16.4 L5.2,16.4 L5.2,16.4 Z M10.7328,9.7602 C11.0648,9.7602 11.3328,9.4912 11.3328,9.1602 C11.3328,8.8282 11.0648,8.5602 10.7328,8.5602 L7.0658,8.5602 C6.7348,8.5602 6.4658,8.8282 6.4658,9.1602 C6.4658,9.4912 6.7348,9.7602 7.0658,9.7602 L10.7328,9.7602 L10.7328,9.7602 L10.7328,9.7602 Z M7.0663,6.6093 L13.7333,6.6093 C14.0643,6.6093 14.3333,6.3403 14.3333,6.0093 C14.3333,5.6773 14.0643,5.4093 13.7333,5.4093 L7.0663,5.4093 C6.7343,5.4093 6.4663,5.6773 6.4663,6.0093 C6.4663,6.3403 6.7343,6.6093 7.0663,6.6093 L7.0663,6.6093 L7.0663,6.6093 Z"/>
</svg>

<svg xmlns="http://www.w3.org/2000/svg" viewBox="0 0 20 20">
    <path fill="#000" fill-rule="evenodd" d="M15.2 2H5.6C4.72 2 4 2.72 4 3.6v12.8c0 .88.72 1.6 1.6 1.6h4.761a1.6 1.6 0 0 0 1.131-.468l4.839-4.839c.3-.3.469-.707.469-1.131V3.6c0-.88-.72-1.6-1.6-1.6m-4.017 14.144V12.85c0-.216.183-.4.4-.4h3.294l-3.694 3.694M5.2 16.4V3.6c0-.216.183-.4.4-.4h9.6c.217 0 .4.184.4.4v7.65h-4.017c-.88 0-1.6.72-1.6 1.6v3.95H5.6a.405.405 0 0 1-.4-.4m5.533-6.64a.6.6 0 1 0 0-1.2H7.066a.6.6 0 1 0 0 1.2h3.667M7.066 6.61h6.667a.6.6 0 0 0 0-1.2H7.066a.6.6 0 1 0 0 1.2"/>
</svg>
